X:891
T:Vals
T:efter Pelle Fors
R:Vals
O:Vikbolandet, Östergötland
S:efter Pelle Fors
B:Låtar efter Pelle Fors
Z:Björn Ek 2009-01-01
M:3/4
L:1/8
K:G
%
|:D3BB2 |B4G2|D3BB2   |B4G2  |
DE FG Ac|e4d2|DE FG Ac|e3d BG|
D3BB2   |B4G2|D3BB2   |B4G2  |
DE FG Ac|e4d2|ed c2 A2|G6   :|
%
|:B4g2|f6  |A4f2 |e4d2 |
G4e2  |d4c2|c4d2 |c4B2 |
B4g2  |f6  |A4f2 |e4d2 | 
G4e2  |d4c2|DFB3A|G3GG2|G6:|
%
(:musicend:)

(:music:)
